X:284
T:Grainne's Jig
R:jig
C:Tommy Peoples
D:Deanta: Ready for the Storm
Z:id:hn-jig-284
M:6/8
K:G
dGF GDB,|G,2G, DB,D|EcB ABG|FED cBA|
B/c/dB ~G3|EGE CEG|DGc BAF|1 AGF GBc:|2 AGF G2A||
|:B2A Ggf|ecA EDE|~F3 ~f3|ed^c d2=c|
B/c/dB Ggf|ecA EDE|DGc BAF|1 AGF G2A:|2 AGF G2D||
|:GBd gfg|ecB c2B|Ace a2g|fd^c def|
gdB Ggf|ecA ~E3|DGc BAF|1 AGF G2D:|2 AGF GBc||

